src/GFX/branch_icon_Gov.svg

<?xml version="1.0" encoding="UTF-8" standalone="no"?>
<!DOCTYPE svg PUBLIC "-//W3C//DTD SVG 1.1//EN" "http://www.w3.org/Graphics/SVG/1.1/DTD/svg11.dtd">
<svg width="100%" height="100%" viewBox="0 0 160 160" version="1.1" xmlns="http://www.w3.org/2000/svg" xmlns:xlink="http://www.w3.org/1999/xlink" xml:space="preserve" xmlns:serif="http://www.serif.com/" style="fill-rule:evenodd;clip-rule:evenodd;stroke-miterlimit:10;">
    <g transform="matrix(1.10961,0,0,1.08168,12.6593,4.27228)">
        <g id="Layer_2">
            <g id="Layer_1-2">
                <g transform="matrix(0.918935,0,0,0.918935,4.90376,10.3675)">
                    <path d="M18.2,125.92C18.307,128.141 17.497,130.312 15.96,131.92C14.244,133.718 11.833,134.691 9.35,134.59C9.248,134.593 9.146,134.595 9.043,134.595C3.881,134.595 -0.367,130.347 -0.367,125.185C-0.367,120.023 3.881,115.775 9.043,115.775C9.146,115.775 9.248,115.777 9.35,115.78C10.634,115.774 11.907,116.015 13.1,116.49C14.208,116.918 15.199,117.604 15.99,118.49L14.33,120.15C13.75,119.461 13.013,118.923 12.18,118.58C11.287,118.192 10.323,117.994 9.35,118C7.48,117.948 5.668,118.672 4.35,120C1.686,122.9 1.686,127.41 4.35,130.31C5.671,131.635 7.48,132.359 9.35,132.31C10.977,132.369 12.571,131.832 13.83,130.8C15.042,129.751 15.784,128.259 15.89,126.66L9.35,126.66L9.35,124.49L18.07,124.49C18.16,124.961 18.204,125.44 18.2,125.92Z" style="fill:rgb(128,128,128);fill-rule:nonzero;"/>
                </g>
                <g transform="matrix(0.918935,0,0,0.918935,4.90376,10.3675)">
                    <path d="M20.29,128C20.231,126.259 20.873,124.565 22.07,123.3C23.257,122.068 24.91,121.392 26.62,121.44C28.325,121.388 29.974,122.065 31.15,123.3C32.375,124.553 33.042,126.249 33,128C33.061,129.747 32.407,131.445 31.19,132.7C30.016,133.939 28.366,134.62 26.66,134.57C24.948,134.618 23.293,133.938 22.11,132.7C20.896,131.442 20.24,129.747 20.29,128ZM22.6,128C22.549,129.184 22.966,130.341 23.76,131.22C24.513,131.992 25.547,132.429 26.625,132.429C27.703,132.429 28.737,131.992 29.49,131.22C31.033,129.372 31.033,126.658 29.49,124.81C28.754,124.008 27.714,123.551 26.625,123.551C25.536,123.551 24.496,124.008 23.76,124.81C22.971,125.68 22.554,126.826 22.6,128Z" style="fill:rgb(128,128,128);fill-rule:nonzero;"/>
                </g>
                <g transform="matrix(0.918935,0,0,0.918935,4.90376,10.3675)">
                    <path d="M41,140C40.344,140.008 39.691,139.921 39.06,139.74C38.478,139.572 37.923,139.322 37.41,139C36.933,138.688 36.505,138.308 36.14,137.87C35.789,137.435 35.518,136.94 35.34,136.41L37.53,135.5C37.763,136.205 38.22,136.816 38.83,137.24C39.468,137.678 40.227,137.905 41,137.89C42.114,137.977 43.211,137.571 44,136.78C44.723,135.908 45.082,134.79 45,133.66L45,132.48L44.9,132.48C44.461,133.132 43.857,133.656 43.15,134C42.397,134.381 41.564,134.576 40.72,134.57C39.131,134.577 37.616,133.885 36.58,132.68C35.441,131.392 34.829,129.719 34.87,128C34.83,126.29 35.442,124.627 36.58,123.35C37.611,122.135 39.127,121.436 40.72,121.44C41.564,121.434 42.397,121.629 43.15,122.01C43.865,122.358 44.476,122.89 44.92,123.55L45,123.55L45,121.84L47.21,121.84L47.21,133.63C47.309,135.344 46.702,137.025 45.53,138.28C44.321,139.452 42.682,140.074 41,140ZM41.07,132.46C42.137,132.492 43.164,132.04 43.86,131.23C45.361,129.366 45.361,126.684 43.86,124.82C43.168,124.002 42.142,123.538 41.07,123.56C39.999,123.544 38.976,124.006 38.28,124.82C36.778,126.676 36.778,129.354 38.28,131.21C38.983,132.032 40.018,132.498 41.1,132.48L41.07,132.46Z" style="fill:rgb(128,128,128);fill-rule:nonzero;"/>
                </g>
                <g transform="matrix(0.918935,0,0,0.918935,4.90376,10.3675)">
                    <rect x="50.55" y="116.19" width="2.32" height="18" style="fill:rgb(128,128,128);fill-rule:nonzero;"/>
                </g>
                <g transform="matrix(0.918935,0,0,0.918935,4.90376,10.3675)">
                    <path d="M61.59,134.6C59.898,134.65 58.264,133.968 57.11,132.73C55.925,131.458 55.292,129.767 55.35,128.03C55.294,126.308 55.907,124.63 57.06,123.35C58.218,122.15 59.817,121.472 61.484,121.472C63.099,121.472 64.65,122.107 65.8,123.24C66.958,124.639 67.537,126.428 67.42,128.24L67.42,128.49L57.72,128.49C57.703,129.586 58.137,130.643 58.92,131.41C59.661,132.129 60.658,132.525 61.69,132.51C63.174,132.505 64.528,131.642 65.16,130.3L67.22,131.3C66.694,132.311 65.898,133.155 64.92,133.74C63.909,134.324 62.757,134.622 61.59,134.6ZM57.89,126.6L65,126.6C64.959,125.789 64.599,125.027 64,124.48C63.3,123.885 62.398,123.58 61.48,123.63C60.656,123.613 59.854,123.902 59.23,124.44C58.562,124.975 58.09,125.718 57.89,126.55L57.89,126.6Z" style="fill:rgb(128,128,128);fill-rule:nonzero;"/>
                </g>
                <g transform="matrix(0.918935,0,0,0.918935,4.90376,10.3675)">
                    <path d="M93.29,125.92C93.397,128.141 92.587,130.312 91.05,131.92C89.333,133.717 86.923,134.69 84.44,134.59C84.338,134.593 84.236,134.595 84.133,134.595C78.971,134.595 74.723,130.347 74.723,125.185C74.723,120.023 78.971,115.775 84.133,115.775C84.236,115.775 84.338,115.777 84.44,115.78C85.721,115.775 86.99,116.016 88.18,116.49C89.293,116.915 90.287,117.601 91.08,118.49L89.42,120.15C88.838,119.463 88.101,118.925 87.27,118.58C86.376,118.198 85.412,118.004 84.44,118.01C82.57,117.958 80.758,118.682 79.44,120.01C76.776,122.91 76.776,127.42 79.44,130.32C80.761,131.645 82.57,132.369 84.44,132.32C86.064,132.379 87.655,131.842 88.91,130.81C90.119,129.781 90.871,128.312 91,126.73L84.44,126.73L84.44,124.56L93.16,124.56C93.246,125.008 93.29,125.464 93.29,125.92Z" style="fill:rgb(251,188,5);fill-rule:nonzero;"/>
                </g>
                <g transform="matrix(0.918935,0,0,0.918935,4.90376,10.3675)">
                    <path d="M95.38,128C95.321,126.259 95.963,124.565 97.16,123.3C98.347,122.068 100,121.392 101.71,121.44C103.412,121.39 105.056,122.067 106.23,123.3C108.634,125.954 108.634,130.046 106.23,132.7C105.058,133.936 103.413,134.617 101.71,134.57C99.998,134.618 98.343,133.938 97.16,132.7C95.961,131.436 95.319,129.741 95.38,128ZM97.69,128C97.635,129.182 98.048,130.34 98.84,131.22C99.593,131.996 100.629,132.434 101.71,132.434C102.791,132.434 103.827,131.996 104.58,131.22C106.123,129.372 106.123,126.658 104.58,124.81C103.842,124.008 102.8,123.551 101.71,123.551C100.62,123.551 99.578,124.008 98.84,124.81C98.054,125.681 97.641,126.827 97.69,128Z" style="fill:rgb(251,188,5);fill-rule:nonzero;"/>
                </g>
                <g transform="matrix(0.918935,0,0,0.918935,4.90376,10.3675)">
                    <path d="M116.39,134.19L114.08,134.19L109.08,121.87L111.59,121.87L115.21,131.43L118.88,121.87L121.35,121.87L116.39,134.19Z" style="fill:rgb(251,188,5);fill-rule:nonzero;"/>
                </g>
                <path d="M96.24,65.37C96.24,75.157 93.333,82.953 87.52,88.76C81,95.68 72.42,99.14 61.78,99.14C52.08,99.332 42.72,95.5 35.94,88.56C28.987,81.724 25.159,72.309 25.37,62.56C25.163,52.812 28.99,43.398 35.94,36.56C42.712,29.601 52.071,25.747 61.78,25.92C66.774,25.892 71.727,26.822 76.37,28.66C80.679,30.313 84.535,32.966 87.62,36.4L81.16,42.86C78.906,40.173 76.034,38.073 72.79,36.74C69.313,35.261 65.569,34.512 61.79,34.54C54.514,34.392 47.492,37.261 42.4,42.46C37.18,47.793 34.57,54.483 34.57,62.53C34.57,70.577 37.18,77.263 42.4,82.59C47.486,87.793 54.505,90.666 61.78,90.52C68.76,90.52 74.57,88.563 79.21,84.65C83.85,80.737 86.517,75.353 87.21,68.5L61.78,68.5L61.78,60.08L95.78,60.08C96.086,61.827 96.24,63.597 96.24,65.37Z" style="fill:rgb(251,188,5);fill-rule:nonzero;"/>
                <path d="M7,24.18L113.18,24.18C114.02,24.18 114.31,23.31 113.58,22.99L61,0.08C60.755,-0.03 60.475,-0.03 60.23,0.08L6.65,23C5.91,23.3 6.2,24.18 7,24.18Z" style="fill:rgb(251,188,5);fill-rule:nonzero;"/>
                <path d="M6.23,104.69L114.72,104.69" style="fill:none;fill-rule:nonzero;stroke:rgb(251,188,5);stroke-width:4px;"/>
                <rect x="99.58" y="25.94" width="8.47" height="74.37" style="fill:rgb(251,188,5);"/>
                <rect x="13.28" y="25.94" width="8.47" height="74.37" style="fill:rgb(251,188,5);"/>
            </g>
        </g>
    </g>
</svg>

<svg xmlns="http://www.w3.org/2000/svg" viewBox="0 0 121.42 140.02"><defs><style>.cls-1{fill:gray;}.cls-2{fill:#fbbc05;}.cls-3{fill:none;stroke:#fbbc05;stroke-miterlimit:10;stroke-width:4px;}</style></defs><title>branch_iconAsset 14</title><g id="Layer_2" data-name="Layer 2"><g id="Layer_1-2" data-name="Layer 1"><path class="cls-1" d="M18.2,125.92a8.12,8.12,0,0,1-2.24,6,8.65,8.65,0,0,1-6.61,2.67,9.41,9.41,0,1,1,0-18.81,10,10,0,0,1,3.75.71,7.49,7.49,0,0,1,2.89,2l-1.66,1.66a5.59,5.59,0,0,0-2.15-1.57A7,7,0,0,0,9.35,118a6.78,6.78,0,0,0-5,2,7.62,7.62,0,0,0,0,10.31,6.81,6.81,0,0,0,5,2,6.69,6.69,0,0,0,4.48-1.51,6,6,0,0,0,2.06-4.14H9.35v-2.17h8.72A7.26,7.26,0,0,1,18.2,125.92Z"/><path class="cls-1" d="M20.29,128a6.52,6.52,0,0,1,1.78-4.7,6.08,6.08,0,0,1,4.55-1.86,6,6,0,0,1,4.53,1.86A6.5,6.5,0,0,1,33,128a6.43,6.43,0,0,1-1.81,4.7,6,6,0,0,1-4.53,1.87,6.06,6.06,0,0,1-4.55-1.87A6.5,6.5,0,0,1,20.29,128Zm2.31,0a4.51,4.51,0,0,0,1.16,3.22,4,4,0,0,0,5.73,0,5,5,0,0,0,0-6.41,3.89,3.89,0,0,0-5.73,0A4.49,4.49,0,0,0,22.6,128Z"/><path class="cls-1" d="M41,140a6.74,6.74,0,0,1-1.94-.26,6.49,6.49,0,0,1-1.65-.74,5.74,5.74,0,0,1-1.27-1.13,4.72,4.72,0,0,1-.8-1.46l2.19-.91a3.43,3.43,0,0,0,1.3,1.74,3.71,3.71,0,0,0,2.17.65A3.82,3.82,0,0,0,44,136.78,4.39,4.39,0,0,0,45,133.66v-1.18h-.1A4.46,4.46,0,0,1,43.15,134a5.3,5.3,0,0,1-2.43.57,5.43,5.43,0,0,1-4.14-1.89A6.82,6.82,0,0,1,34.87,128a6.75,6.75,0,0,1,1.71-4.65,5.41,5.41,0,0,1,4.14-1.91,5.3,5.3,0,0,1,2.43.57,4.51,4.51,0,0,1,1.77,1.54H45v-1.71h2.21v11.79a6.28,6.28,0,0,1-1.68,4.65A6.12,6.12,0,0,1,41,140Zm.07-7.54a3.54,3.54,0,0,0,2.79-1.23,5.11,5.11,0,0,0,0-6.41,3.56,3.56,0,0,0-2.79-1.26,3.6,3.6,0,0,0-2.79,1.26,5.08,5.08,0,0,0,0,6.39A3.63,3.63,0,0,0,41.1,132.48Z"/><path class="cls-1" d="M52.87,116.19v18H50.55v-18Z"/><path class="cls-1" d="M61.59,134.6a5.89,5.89,0,0,1-4.48-1.87,6.57,6.57,0,0,1-1.76-4.7,6.67,6.67,0,0,1,1.71-4.68,6.15,6.15,0,0,1,8.74-.11,7.12,7.12,0,0,1,1.62,5l0,.25H57.72a4,4,0,0,0,1.2,2.92,3.9,3.9,0,0,0,2.77,1.1,3.85,3.85,0,0,0,3.47-2.21l2.06,1a6.15,6.15,0,0,1-2.3,2.44A6.42,6.42,0,0,1,61.59,134.6Zm-3.7-8H65a3.08,3.08,0,0,0-1-2.12,3.59,3.59,0,0,0-2.52-.85,3.34,3.34,0,0,0-2.25.81A3.86,3.86,0,0,0,57.89,126.55Z"/><path class="cls-2" d="M93.29,125.92a8.12,8.12,0,0,1-2.24,6,8.66,8.66,0,0,1-6.61,2.67,9.41,9.41,0,1,1,0-18.81,10,10,0,0,1,3.74.71,7.45,7.45,0,0,1,2.9,2l-1.66,1.66a5.66,5.66,0,0,0-2.15-1.57,7.08,7.08,0,0,0-2.83-.57,6.78,6.78,0,0,0-5,2,7.62,7.62,0,0,0,0,10.31,6.81,6.81,0,0,0,5,2,6.66,6.66,0,0,0,4.47-1.51A6,6,0,0,0,91,126.73H84.44v-2.17h8.72A7.26,7.26,0,0,1,93.29,125.92Z"/><path class="cls-2" d="M95.38,128a6.52,6.52,0,0,1,1.78-4.7,6.08,6.08,0,0,1,4.55-1.86,6,6,0,0,1,4.52,1.86,7,7,0,0,1,0,9.4,6,6,0,0,1-4.52,1.87,6.06,6.06,0,0,1-4.55-1.87A6.5,6.5,0,0,1,95.38,128Zm2.31,0a4.5,4.5,0,0,0,1.15,3.22,4,4,0,0,0,5.74,0,5,5,0,0,0,0-6.41,3.9,3.9,0,0,0-5.74,0A4.48,4.48,0,0,0,97.69,128Z"/><path class="cls-2" d="M116.39,134.19h-2.31l-5-12.32h2.51l3.62,9.56h0l3.67-9.56h2.47Z"/><path class="cls-2" d="M96.24,65.37q0,14.68-8.72,23.39Q77.74,99.14,61.78,99.14A35.15,35.15,0,0,1,35.94,88.56a35.39,35.39,0,0,1-10.57-26,35.42,35.42,0,0,1,10.57-26A35.18,35.18,0,0,1,61.78,25.92a39.06,39.06,0,0,1,14.59,2.74A29.17,29.17,0,0,1,87.62,36.4l-6.46,6.46a21.69,21.69,0,0,0-8.37-6.12,27.58,27.58,0,0,0-11-2.2A26.39,26.39,0,0,0,42.4,42.46q-7.83,8-7.83,20.07T42.4,82.59a26.36,26.36,0,0,0,19.38,7.93q10.47,0,17.43-5.87t8-16.15H61.78V60.08h34A30.72,30.72,0,0,1,96.24,65.37Z"/><path class="cls-2" d="M7,24.18H113.18c.84,0,1.13-.87.4-1.19L61,.08a.94.94,0,0,0-.77,0L6.65,23C5.91,23.3,6.2,24.18,7,24.18Z"/><line class="cls-3" x1="6.23" y1="104.69" x2="114.72" y2="104.69"/><rect class="cls-2" x="99.58" y="25.94" width="8.47" height="74.37"/><rect class="cls-2" x="13.28" y="25.94" width="8.47" height="74.37"/></g></g></svg>
